communes/160.svg

<?xml version="1.0" encoding="UTF-8" standalone="no"?>
<svg
   xmlns:dc="http://purl.org/dc/elements/1.1/"
   xmlns:cc="http://creativecommons.org/ns#"
   xmlns:rdf="http://www.w3.org/1999/02/22-rdf-syntax-ns#"
   xmlns:svg="http://www.w3.org/2000/svg"
   xmlns="http://www.w3.org/2000/svg"
   xmlns:xlink="http://www.w3.org/1999/xlink"
   xmlns:sodipodi="http://sodipodi.sourceforge.net/DTD/sodipodi-0.dtd"
   xmlns:inkscape="http://www.inkscape.org/namespaces/inkscape"
   version="1.0"
   width="217.28572"
   height="254.5164"
   id="svg2780"
   sodipodi:docname="160.svg">
  <metadata
     id="metadata14">
    <rdf:RDF>
      <cc:Work
         rdf:about="">
        <dc:format>image/svg+xml</dc:format>
        <dc:type
           rdf:resource="http://purl.org/dc/dcmitype/StillImage" />
      </cc:Work>
    </rdf:RDF>
  </metadata>
  <sodipodi:namedview
     pagecolor="#ffffff"
     bordercolor="#666666"
     borderopacity="1"
     objecttolerance="10"
     gridtolerance="10"
     guidetolerance="10"
     inkscape:pageopacity="0"
     inkscape:pageshadow="2"
     inkscape:window-width="640"
     inkscape:window-height="480"
     id="namedview12" />
  <defs
     id="defs2782" />
  <g
     transform="translate(-15.188934,-811.98212)"
     id="layer1">
    <path
       d="M 16.188934,812.98212 L 20.103216,977.4114 C 22.899124,1094.8609 224.76446,1094.8609 227.56038,977.4114 L 231.47466,812.98212 L 16.188934,812.98212 z "
       style="fill:#2369c1;fill-opacity:1;fill-rule:evenodd;stroke:#000000;stroke-width:2;stroke-linecap:butt;stroke-miterlimit:4;stroke-dashoffset:0;stroke-opacity:1"
       id="path3282" />
    <use
       transform="matrix(-1,0,0,1,247.66359,0)"
       id="use5304"
       x="0"
       y="0"
       width="248.03149"
       height="248.03149"
       xlink:href="#g5298" />
    <g
       transform="translate(-294.22122,14.096186)"
       id="g5298">
      <rect
         width="14.203699"
         height="149.01425"
         x="-193.30736"
         y="881.11761"
         transform="matrix(0.8160254,-0.578016,0.578016,0.8160254,0,0)"
         style="opacity:1;color:#000000;fill:#ffffff;fill-opacity:1;fill-rule:evenodd;stroke:#000000;stroke-width:1.00000012px;stroke-linecap:butt;stroke-linejoin:miter;marker:none;marker-start:none;marker-mid:none;marker-end:none;stroke-miterlimit:4;stroke-dasharray:none;stroke-dashoffset:0;stroke-opacity:1;visibility:visible;display:inline;overflow:visible;enable-background:accumulate"
         id="rect3336" />
      <rect
         width="18.813671"
         height="8.3477888"
         rx="4.1738944"
         ry="4.1738944"
         x="-195.61235"
         y="872.76984"
         transform="matrix(0.8160254,-0.578016,0.578016,0.8160254,0,0)"
         style="opacity:1;color:#000000;fill:#ffffff;fill-opacity:1;fill-rule:evenodd;stroke:#000000;stroke-width:1.00000012px;stroke-linecap:butt;stroke-linejoin:miter;marker:none;marker-start:none;marker-mid:none;marker-end:none;stroke-miterlimit:4;stroke-dasharray:none;stroke-dashoffset:0;stroke-opacity:1;visibility:visible;display:inline;overflow:visible;enable-background:accumulate"
         id="rect3338" />
      <path
         d="M 394.14627,890.87624 L 388.96998,894.54276 L 379.80368,881.60206 L 373.90848,885.77781 L 383.07478,898.71852 L 359.78151,915.21785 L 343.18033,891.78081 L 352.67017,885.05886 L 360.81799,896.5617 L 365.8505,892.99703 L 357.70267,881.49418 L 366.47359,875.28147 L 363.21446,870.68032 L 354.44354,876.89304 L 346.29572,865.39019 L 341.26322,868.95486 L 349.41104,880.45771 L 339.92119,887.17966 L 323.32001,863.74261 L 346.61327,847.24327 L 355.77957,860.18398 L 361.67478,856.00822 L 352.50848,843.06752 L 357.68476,839.401 L 394.14627,890.87624 z "
         style="fill:#ffffff;fill-opacity:1;fill-rule:evenodd;stroke:#000000;stroke-width:1px;stroke-linecap:butt;stroke-linejoin:miter;stroke-opacity:1"
         id="path3340" />
      <path
         d="M 487.76414,1010.7565 C 496.29555,1004.7134 499.52006,986.96335 492.51455,976.66673 C 505.72352,957.07102 479.92742,924.04325 454.77692,947.47224 C 454.22375,945.77677 454.09494,944.68041 453.68655,943.49418 C 453.28527,942.3286 451.72427,941.10722 450.01403,942.42476 C 445.48694,945.91235 440.92314,949.79212 435.82859,952.47275 C 433.91117,953.48165 434.65249,955.52678 435.6189,956.29206 C 436.60243,957.0709 437.59394,957.55618 439.00983,958.64056 C 408.56324,974.5927 431.16103,1009.8859 454.02934,1003.927 C 461.41828,1013.952 479.23272,1016.7996 487.76414,1010.7565 z M 459.47971,989.33372 C 460.46777,989.78795 458.43093,993.05565 462.70696,999.09246 C 466.98296,1005.1292 475.46375,1006.4796 481.63726,1002.1067 C 487.81077,997.7338 489.35074,989.28538 485.07476,983.24866 C 480.79871,977.21187 477.21663,978.2981 477.09152,976.95223 C 476.96638,975.6064 480.6873,976.01361 483.77729,969.29217 C 486.86729,962.57061 483.79638,954.55082 476.92259,951.39084 C 470.04881,948.23088 461.96226,951.12143 458.87228,957.843 C 455.78235,964.56447 458.69051,967.37253 457.58741,968.15389 C 456.24605,969.10403 454.8003,965.26006 447.43425,965.94487 C 440.06822,966.62962 434.65833,973.29899 435.35861,980.83187 C 436.05889,988.36473 442.60545,993.9226 449.97149,993.23783 C 457.33743,992.55305 458.49164,988.87949 459.47971,989.33372 z "
         style="opacity:1;color:#000000;fill:#ffffff;fill-opacity:1;fill-rule:evenodd;stroke:#000000;stroke-width:1px;stroke-linecap:butt;stroke-linejoin:miter;marker:none;marker-start:none;marker-mid:none;marker-end:none;stroke-miterlimit:4;stroke-dasharray:none;stroke-dashoffset:0;stroke-opacity:1;visibility:visible;display:inline;overflow:visible;enable-background:accumulate"
         id="path2256" />
    </g>
  </g>
</svg>

<?xml version="1.0" encoding="UTF-8"?>
<svg version="1.0" viewBox="0 0 217.29 254.52" xmlns="http://www.w3.org/2000/svg" xmlns:cc="http://creativecommons.org/ns#" xmlns:dc="http://purl.org/dc/elements/1.1/" xmlns:rdf="http://www.w3.org/1999/02/22-rdf-syntax-ns#" xmlns:xlink="http://www.w3.org/1999/xlink">
<metadata>
<rdf:RDF>
<cc:Work rdf:about="">
<dc:format>image/svg+xml</dc:format>
<dc:type rdf:resource="http://purl.org/dc/dcmitype/StillImage"/>
</cc:Work>
</rdf:RDF>
</metadata>
<g transform="translate(-15.189 -811.98)">
<path d="m16.189 812.98 3.9143 164.43c2.7959 117.45 204.66 117.45 207.46 0l3.9143-164.43h-215.29z" fill="#2369c1" fill-rule="evenodd" stroke="#000" stroke-width="2"/>
<use transform="matrix(-1 0 0 1 247.66 0)" width="248.03149" height="248.03149" xlink:href="#a"/>
<g id="a" transform="translate(-294.22 14.096)">
<rect transform="matrix(.81603 -.57802 .57802 .81603 0 0)" x="-193.31" y="881.12" width="14.204" height="149.01" color="#000000" fill="#fff" fill-rule="evenodd" stroke="#000" stroke-width="1px"/>
<rect transform="matrix(.81603 -.57802 .57802 .81603 0 0)" x="-195.61" y="872.77" width="18.814" height="8.3478" rx="4.1739" ry="4.1739" color="#000000" fill="#fff" fill-rule="evenodd" stroke="#000" stroke-width="1px"/>
<path d="m394.15 890.88-5.1763 3.6665-9.1663-12.941-5.8952 4.1758 9.1663 12.941-23.293 16.499-16.601-23.437 9.4898-6.722 8.1478 11.503 5.0325-3.5647-8.1478-11.503 8.7709-6.2127-3.2591-4.6012-8.7709 6.2127-8.1478-11.503-5.0325 3.5647 8.1478 11.503-9.4898 6.722-16.601-23.437 23.293-16.499 9.1663 12.941 5.8952-4.1758-9.1663-12.941 5.1763-3.6665 36.462 51.475z" fill="#fff" fill-rule="evenodd" stroke="#000" stroke-width="1px"/>
<path d="m487.76 1010.8c8.5314-6.0431 11.756-23.793 4.7504-34.09 13.209-19.596-12.587-52.623-37.738-29.194-0.55317-1.6955-0.68198-2.7918-1.0904-3.9781-0.40128-1.1656-1.9623-2.387-3.6725-1.0694-4.5271 3.4876-9.0909 7.3674-14.185 10.048-1.9174 1.0089-1.1761 3.054-0.20969 3.8193 0.98353 0.77884 1.975 1.2641 3.3909 2.3485-30.447 15.952-7.8488 51.245 15.02 45.286 7.3889 10.025 25.203 12.873 33.735 6.8295zm-28.284-21.423c0.98806 0.45423-1.0488 3.7219 3.2272 9.7587 4.276 6.0367 12.757 7.3871 18.93 3.0142s7.7135-12.821 3.4375-18.858c-4.276-6.0368-7.8581-4.9506-7.9832-6.2964-0.12514-1.3458 3.5958-0.93862 6.6858-7.6601 3.09-6.7216 0.01909-14.741-6.8547-17.901-6.8738-3.16-14.96-0.26941-18.05 6.4522-3.0899 6.7215-0.18177 9.5295-1.2849 10.311-1.3414 0.95014-2.7871-2.8938-10.153-2.209-7.366 0.68475-12.776 7.3541-12.076 14.887 0.70028 7.5329 7.2468 13.091 14.613 12.406 7.3659-0.68478 8.5202-4.3583 9.5082-3.9041z" color="#000000" fill="#fff" fill-rule="evenodd" stroke="#000" stroke-width="1px"/>
</g>
</g>
</svg>
